X:1
T:Reed, 66.66.88
T:Reed, 66.66.88
T:John P. Campbell, 1899
T:Public Domain Courtesy of the Cyber Hymnal™
C:John P. Campbell, 1899
Z:Public Domain
Z:Courtesy of the Cyber Hymnal™
%%score ( 1 2 ) ( 3 4 )
L:1/8
Q:1/4=115
M:4/4
K:D
V:1 treble 
V:2 treble 
V:3 bass 
V:4 bass 
V:1
 [FA]2 [DF][EG] [FA]2 [Fd]2 | [Gc]6 [CB]2 | [DA]2 D2 [DG]2 [CA]2 | [DF]6 [CG]2 | %4
 [DA]2 [Dd]2 [Ec]2 [EB]2 | [Ee]2 [CA]2 [Ed]2 [Ec]2 | [FB]4 B4 | [CA]6 A2 | %8
 [Ac]2 [Ad]2 [Ae]2 [Ac]2 | [Ad]2 [GB]2 [FA]2 [DF]2 | [CG]2 [DA]2 [DB]2 [Gd]2 | [Fd]4 [Gc]4 | %12
 [Fd]8 |] %13
V:2
 x8 | x8 | x2 D2 x4 | x8 | x8 | x8 | x4 (E2 D2) | x6 A2 | x8 | x8 | x8 | x8 | x8 |] %13
V:3
 [D,A,]2 [D,A,][D,A,] [D,D]2 [D,A,]2 | [E,A,]6 [E,G,]2 | [F,A,]2 [G,B,]2 [E,B,]2 [A,,A,]2 | %3
 [D,A,]6 [E,A,]2 | [F,A,]2 [F,A,]2 [E,A,]2 [D,^G,]2 | [C,A,]2 [F,A,]2 [B,,^G,]2 [C,A,]2 | %6
 [D,A,]4 [E,^G,]4 | [A,,A,]6 A,2 | [G,E]2 [F,D]2 [G,C]2 [G,E]2 | [F,D]2 [G,D]2 [D,D]2 [D,A,]2 | %10
 [E,A,]2 [F,A,]2 G,2 [E,B,]2 | A,4 [A,,A,]4 | [D,A,]8 |] %13
V:4
 x8 | x8 | x8 | x8 | x8 | x8 | x8 | x6 A,2 | x8 | x8 | x4 G,2 x2 | A,4 x4 | x8 |] %13

